X:1
T:Title
%%score { ( 1 4 ) | ( 2 3 ) }
L:1/8
M:6/8
K:A
V:1 treble nm="Grand Piano"
V:4 treble 
V:2 bass 
V:3 bass 
V:1
 z3 z2[Q:1/4=78] E | ecB ABc | dBA G2 E | FG[A,EA] [FB][Ec][Dd] | c3 B2 E | ecB AGA | %6
[M:5/8] cAG F2 |[M:1/8] F |[M:3/4] .B2 z B z2 | [A,^DF]3 E2 E | z F [B,EG]E- [EB][Ec] | %11
 [Ed]2 [Ec] B2 E | E2 z .c3 |[M:5/8] [CEA]-[CEA]- [CEA]3 |] %14
V:2
 z3 z2 [A,C] | [A,CE]2 [A,CE] [A,CE]2 [A,CE] | B,D[E,CE] [E,B,E]2 [C,A,] | .A,3 z3 | %4
 [E,E]3- [E,G,E]2 [G,D] | [A,CE]2 [A,CE] [A,CE]2 [A,CE] |[M:5/8] [F,F]-[F,CF][F,B,^E] [F,A,]2 | %7
[M:1/8] [F,A,] |[M:3/4] .G,2 z G, z2 | z2 z G,2 [E,G,] | G,A, D,C, [B,,G,][A,,A,] | %11
 [G,,B,]2 [A,,A,] [E,G,E]2 [D,G,] | [C,A,]2 [F,A,^D][A,E] z E, |[M:5/8] A,,-A,,- A,,3 |] %14
V:3
 x6 | x6 | .[E,E]3 z3 | [D,D]-[D,B,D]C, [D,F,][C,^A,][B,,B,] | A,3 z3 | x6 |[M:5/8] A, z z z2 | %7
[M:1/8] x |[M:3/4] B,,-[B,,F,] [B,,A,]B,,- [B,,B,]B,, | E,6 | E,2 z2 z2 | x6 | z2 z .E,3 | %13
[M:5/8] x5 |] %14
V:4
 x6 | x6 | x6 | x6 | x6 | x6 |[M:5/8] x5 |[M:1/8] x |[M:3/4] E-[EA] [^Dc]E- [EG][A,DF] | x6 | %10
 E2 z [A,A] z2 | x6 | ec .A2 E[DEB] |[M:5/8] x5 |] %14

